X: 341
M: C
L: 1/8
K: D
V: 1
z z/(3(A//B//c//) |\
d3z/b/ a>gf>e | d2A2 z2d>A | B2g2 z2g>B | A2f2 z2d>f |\
e>dc>B A>Ge>G | TG2{FG}F2 z2d>f | (Te3d/e/) f>ed>c |
e2c>d e>Aa>e | Tf2{ef}e2 z2e>f | g>gf>e f>fe>d |\
a2e>c A2 z(3(A/B/c/) | d3b a>gf>e | d2A2 z2d>A |
f2a>f e2g>e | f>ef>g f2Te2 | d2d>d d>dd>d | d6 :|
V: 2
z2 |\
f2 d4 c2 | d4 A2F2 | D2BA d3G |
d>AA2 c2d2 | e4 d2A2- | A3A F2d2 | a2c2 d2A2- | TA2^G2 E2^G2 |
d2d2 c2c2 | d2d>e d2Tc2 | d2F>F F>FF>F | F6 :|

